Origami/22x22/apps/dolphin-emu.svg

<svg width="22" height="22" version="1.1" viewBox="0 0 22 22" xmlns="http://www.w3.org/2000/svg">
 <path d="m20.970441 18.539605c-0.07769-0.656436-0.419575-1.212583-0.6942-1.659483-0.0967-0.157284-0.208329-0.2459-0.27624-0.378658-0.007275-4.057419-1.696874-8.8941858-5.500001-10.996082 0.5-0.3685116 0.899358-0.7573759 1.353295-1.0423131 0.275758-0.2031013 0.152307-0.738078-0.05459-0.8630299-1.55221-0.2657359-3.186138 0.0492044-4.601085 0.5288736-0.917589 0.3110941-1.3632479 0.3542237-1.8792399 0.404111-0.4387662 0.0424349-1.4361554 0.0905627-2.2263065 0.2915611-2.2757137 0.5789787-3.3462653 1.4973788-3.9535508 2.1002039-0.474072 0.4705725-0.6647937 0.9495221-0.6385236 1.3386681-0.1128121 0.056485-0.1727741 0.1194825-0.2975102 0.184759-0.8340277 0.4363246-1.1228121 0.6402023-1.1894187 0.9877433-0.049094 0.256468 0.041082 0.424486 0.2542233 0.654404 0.343966 0.319657 0.539563 0.409675 1.0796806 0.409675 0.3940883 0 0.5013669-0.120061 0.9868971-0.226603 0.4297298-0.09429 0.9645395-0.211569 1.3707011-0.25072 0.5157125-0.04978 1.0316121-0.0023 1.8100257 0.149839 0.2305615 0.04508 0.491865 0.09614 0.778227 0.147807 0.3680606 0.06639 0.7517711 0.200161 1.1406982 0.200161 0.330891 0 0.8237898 0.01352 1.0626428-0.01692 0.173177 0.324115 0.460843 1.009896 0.9246679 1.561819 1.210006 1.439877 2.264953 1.436096 2.409718 1.43711 0.261675 0.0035 0.508353-0.07452 0.628897-0.28769 0.120544-0.213259 0.10005-0.467873-0.05561-0.661429-0.0032-4e-3 -0.263034-0.408759-0.387118-1.059957-0.0354-0.185524-0.0196-0.341971-0.01671-0.490033 1.610513 0.468368 4.162502 1.895091 4.489335 3.449163l0.01066 0.549413c-0.0046-1.95e-4 0.0046 1e-4 0 0-0.07406-3e-3 -0.298104-0.0038-0.410823-0.0038-0.292977 0-0.61008 0.02943-0.969384 0.08626-1.166875 0.184589-1.845311 0.937766-1.924493 1.02309-0.182959 0.196935-0.226743 0.675292-0.09511 0.903521 0.130606 0.226614 0.388276 0.360391 0.668676 0.338579l0.01295-8.5e-5c1.783953 0.246582 4.047485 1.35986 4.780757 2.780489 0.114489 0.226619 0.363402 0.369948 0.634859 0.369948 0.01742 0 0.03494-4.9e-4 0.05245-2e-3 0.291393-0.0198 0.538443-0.202093 0.619209-0.456957 0.02059-0.06587 0.200379-0.666077 0.101354-1.501609z" style="opacity:.2"/>
 <path d="m20.970441 18.039566c-0.07769-0.656436-0.419575-1.212583-0.6942-1.659483-0.0967-0.157284-0.208329-0.2459-0.27624-0.378658-0.007275-4.057419-1.696874-8.8941858-5.500001-10.996082 0.5-0.3685116 0.899358-0.7573759 1.353295-1.0423131 0.275758-0.2031013 0.152307-0.738078-0.05459-0.8630299-1.55221-0.2657359-3.186138 0.0492044-4.601085 0.5288736-0.917589 0.3110941-1.3632479 0.3542237-1.8792399 0.404111-0.4387662 0.0424349-1.4361554 0.0905627-2.2263065 0.2915611-2.2757137 0.5789787-3.3462653 1.4973788-3.9535508 2.1002039-0.474072 0.4705725-0.6647937 0.9495221-0.6385236 1.3386681-0.1128121 0.056485-0.1727741 0.1194825-0.2975102 0.184759-0.8340277 0.4363246-1.1228121 0.6402021-1.1894187 0.9877431-0.04909404 0.2564682 0.041082 0.4244862 0.2542233 0.6544042 0.343966 0.319657 0.539563 0.409675 1.0796806 0.409675 0.3940883 0 0.5013669-0.120061 0.9868971-0.226603 0.4297298-0.09429 0.9645395-0.211569 1.3707011-0.25072 0.5157125-0.04978 1.0316121-0.0023 1.8100257 0.149839 0.2305615 0.04508 0.491865 0.09614 0.778227 0.147807 0.3680606 0.06639 0.7517711 0.200161 1.1406982 0.200161 0.330891 0 0.8237898 0.01352 1.0626428-0.01692 0.173177 0.324115 0.460843 1.009896 0.9246679 1.561819 1.210006 1.439877 2.264953 1.436096 2.409718 1.43711 0.261675 0.0035 0.508353-0.07452 0.628897-0.28769 0.120544-0.213259 0.10005-0.467873-0.05561-0.661429-0.0032-4e-3 -0.263034-0.408759-0.387118-1.059957-0.0354-0.185524-0.0196-0.341971-0.01671-0.490033 1.610513 0.468368 4.162502 1.895091 4.489335 3.449163l0.01066 0.549413c-0.0046-1.95e-4 0.0046 1e-4 0 0-0.07406-3e-3 -0.298104-0.0038-0.410823-0.0038-0.292977 0-0.61008 0.02943-0.969384 0.08626-1.166875 0.184589-1.845311 0.937766-1.924493 1.02309-0.182959 0.196935-0.226743 0.675292-0.09511 0.903521 0.130606 0.226614 0.388276 0.360391 0.668676 0.338579l0.01295-8.5e-5c1.783953 0.246582 4.047485 1.35986 4.780757 2.780489 0.114489 0.226619 0.363402 0.369948 0.634859 0.369948 0.01742 0 0.03494-4.9e-4 0.05245-2e-3 0.291393-0.0198 0.538443-0.202093 0.619209-0.456957 0.02059-0.06587 0.200379-0.666077 0.101354-1.501609z" style="fill:#489cf2"/>
 <circle cx="4.5" cy="8" r=".5" style="opacity:.2"/>
 <circle cx="4.5" cy="7.5" r=".5" style="fill:#ffffff"/>
 <path d="m14.623047 3.0039062c-1.180707-0.00105-2.364571 0.2652482-3.425781 0.625-0.917589 0.3110942-1.3629149 0.3544096-1.8789069 0.4042969-0.4387658 0.0424349-1.436411 0.0900173-2.2265621 0.2910157-2.2757137 0.5789787-3.3458395 1.4967842-3.953125 2.0996093-0.474072 0.4705725-0.664942 0.9506978-0.6386719 1.3398438-0.1128121 0.056485-0.1721389 0.1183172-0.296875 0.1835937-0.8340277 0.4363246-1.1228465 0.6407403-1.1894531 0.9882813-0.02711054 0.1416261-0.0043015 0.2580941 0.0507812 0.3710941 0.11456-0.273054 0.4171426-0.481905 1.1386719-0.8593754 0.1247361-0.0652765 0.1840629-0.1271087 0.296875-0.1835937-0.0262701-0.389146 0.1645999-0.8692713 0.6386719-1.3398438 0.6072855-0.6028251 1.6774113-1.5206306 3.953125-2.0996093 0.7901511-0.2009985 1.7877963-0.2485808 2.2265621-0.2910157 0.515992-0.049887 0.9613179-0.093203 1.8789069-0.4042969 1.414947-0.4796691 3.049352-0.7950327 4.601562-0.5292968 0.06422 0.038782 0.113646 0.1231529 0.152344 0.21875 0.118006-0.2447475 0.0177-0.6160519-0.152344-0.71875-0.388052-0.066434-0.782212-0.095355-1.175781-0.095703zm0.230469 2.2207032c-0.11687 0.094458-0.226151 0.1873789-0.353516 0.28125 3.803127 2.1018962 5.492725 6.9386746 5.5 10.996094 0.06791 0.132758 0.178691 0.221622 0.275391 0.378906 0.274625 0.4469 0.617622 1.001768 0.695312 1.658203 0.01188 0.100201 0.0091 0.184428 0.01367 0.277344 0.01593-0.225107 0.02179-0.478166-0.01367-0.777344-0.07769-0.656435-0.420687-1.211303-0.695312-1.658203-0.0967-0.157284-0.20748-0.246148-0.275391-0.378906-0.007041-3.926888-1.596889-8.5762819-5.146484-10.777344zm-1.853516 5.7792966c-0.0029 0.148062-0.01782 0.304711 0.01758 0.490235 0.124084 0.651198 0.383519 1.054593 0.386719 1.058593 0.03007 0.03739 0.05037 0.07989 0.07031 0.121094 0.09683-0.204537 0.07576-0.439463-0.07031-0.621094-0.0032-4e-3 -0.25733-0.40114-0.382813-1.041015-0.0068-2e-3 -0.0147-0.0058-0.02148-0.0078zm4.089844 3.494141c-0.292977 0-0.611399 0.02911-0.970703 0.08594-1.166875 0.184589-1.844647 0.938114-1.923829 1.023438-0.157534 0.169568-0.204778 0.539577-0.132812 0.787109 0.02847-0.113716 0.06941-0.218864 0.132812-0.287109 0.07918-0.08532 0.756954-0.838849 1.923829-1.023438 0.359304-0.05683 0.677726-0.08594 0.970703-0.08594 0.112719 0 0.336096 9.06e-4 0.410156 0.0039l-0.0098-0.5c-0.07912-0.0028-0.290355-0.0039-0.40039-0.0039z" style="fill:#ffffff;opacity:.2"/>
</svg>

<svg xmlns="http://www.w3.org/2000/svg" width="22" height="22" x="0" y="0" version="1.1" viewBox="0 0 22 22" xml:space="preserve">
 <path style="opacity:0.2" d="m 20.970441,18.539605 c -0.07769,-0.656436 -0.419575,-1.212583 -0.6942,-1.659483 -0.0967,-0.157284 -0.208329,-0.2459 -0.27624,-0.378658 C 19.992726,12.444045 18.303127,7.6072782 14.5,5.505382 15,5.1368704 15.399358,4.7480061 15.853295,4.4630689 16.129053,4.2599676 16.005602,3.7249909 15.798705,3.600039 14.246495,3.3343031 12.612567,3.6492434 11.19762,4.1289126 10.280031,4.4400067 9.8343721,4.4831363 9.3183801,4.5330236 8.8796139,4.5754585 7.8822247,4.6235863 7.0920736,4.8245847 4.8163599,5.4035634 3.7458083,6.3219635 3.1385228,6.9247886 2.6644508,7.3953611 2.4737291,7.8743107 2.4999992,8.2634567 2.3871871,8.3199417 2.3272251,8.3829392 2.202489,8.4482157 1.3684613,8.8845403 1.0796769,9.088418 1.0130703,9.435959 c -0.049094,0.256468 0.041082,0.424486 0.2542233,0.654404 0.343966,0.319657 0.539563,0.409675 1.0796806,0.409675 0.3940883,0 0.5013669,-0.120061 0.9868971,-0.226603 0.4297298,-0.09429 0.9645395,-0.211569 1.3707011,-0.25072 0.5157125,-0.04978 1.0316121,-0.0023 1.8100257,0.149839 0.2305615,0.04508 0.491865,0.09614 0.778227,0.147807 0.3680606,0.06639 0.7517711,0.200161 1.1406982,0.200161 0.330891,0 0.8237898,0.01352 1.0626428,-0.01692 0.173177,0.324115 0.460843,1.009896 0.9246679,1.561819 1.210006,1.439877 2.264953,1.436096 2.409718,1.43711 0.261675,0.0035 0.508353,-0.07452 0.628897,-0.28769 0.120544,-0.213259 0.10005,-0.467873 -0.05561,-0.661429 -0.0032,-0.004 -0.263034,-0.408759 -0.387118,-1.059957 -0.0354,-0.185524 -0.0196,-0.341971 -0.01671,-0.490033 1.610513,0.468368 4.162502,1.895091 4.489335,3.449163 l 0.01066,0.549413 c -0.0046,-1.95e-4 0.0046,10e-5 0,0 -0.07406,-0.003 -0.298104,-0.0038 -0.410823,-0.0038 -0.292977,0 -0.61008,0.02943 -0.969384,0.08626 -1.166875,0.184589 -1.845311,0.937766 -1.924493,1.02309 -0.182959,0.196935 -0.226743,0.675292 -0.09511,0.903521 0.130606,0.226614 0.388276,0.360391 0.668676,0.338579 l 0.01295,-8.5e-5 c 1.783953,0.246582 4.047485,1.35986 4.780757,2.780489 0.114489,0.226619 0.363402,0.369948 0.634859,0.369948 0.01742,0 0.03494,-4.9e-4 0.05245,-0.002 0.291393,-0.0198 0.538443,-0.202093 0.619209,-0.456957 0.02059,-0.06587 0.200379,-0.666077 0.101354,-1.501609 z"/>
 <path style="fill:#489cf2" d="m 20.970441,18.039566 c -0.07769,-0.656436 -0.419575,-1.212583 -0.6942,-1.659483 -0.0967,-0.157284 -0.208329,-0.2459 -0.27624,-0.378658 C 19.992726,11.944006 18.303127,7.1072392 14.5,5.005343 15,4.6368314 15.399358,4.2479671 15.853295,3.9630299 16.129053,3.7599286 16.005602,3.2249519 15.798705,3.1 14.246495,2.8342641 12.612567,3.1492044 11.19762,3.6288736 10.280031,3.9399677 9.8343721,3.9830973 9.3183801,4.0329846 8.8796139,4.0754195 7.8822247,4.1235473 7.0920736,4.3245457 4.8163599,4.9035244 3.7458083,5.8219245 3.1385228,6.4247496 2.6644508,6.8953221 2.4737291,7.3742717 2.4999992,7.7634177 2.3871871,7.8199027 2.3272251,7.8829002 2.202489,7.9481767 1.3684613,8.3845013 1.0796769,8.5883788 1.0130703,8.9359198 0.96397626,9.192388 1.0541523,9.360406 1.2672936,9.590324 c 0.343966,0.319657 0.539563,0.409675 1.0796806,0.409675 0.3940883,0 0.5013669,-0.120061 0.9868971,-0.226603 0.4297298,-0.09429 0.9645395,-0.211569 1.3707011,-0.25072 0.5157125,-0.04978 1.0316121,-0.0023 1.8100257,0.149839 0.2305615,0.04508 0.491865,0.09614 0.778227,0.147807 0.3680606,0.06639 0.7517711,0.200161 1.1406982,0.200161 0.330891,0 0.8237898,0.01352 1.0626428,-0.01692 0.173177,0.324115 0.460843,1.009896 0.9246679,1.561819 1.210006,1.439877 2.264953,1.436096 2.409718,1.43711 0.261675,0.0035 0.508353,-0.07452 0.628897,-0.28769 0.120544,-0.213259 0.10005,-0.467873 -0.05561,-0.661429 -0.0032,-0.004 -0.263034,-0.408759 -0.387118,-1.059957 -0.0354,-0.185524 -0.0196,-0.341971 -0.01671,-0.490033 1.610513,0.468368 4.162502,1.895091 4.489335,3.449163 l 0.01066,0.549413 c -0.0046,-1.95e-4 0.0046,10e-5 0,0 -0.07406,-0.003 -0.298104,-0.0038 -0.410823,-0.0038 -0.292977,0 -0.61008,0.02943 -0.969384,0.08626 -1.166875,0.184589 -1.845311,0.937766 -1.924493,1.02309 -0.182959,0.196935 -0.226743,0.675292 -0.09511,0.903521 0.130606,0.226614 0.388276,0.360391 0.668676,0.338579 l 0.01295,-8.5e-5 c 1.783953,0.246582 4.047485,1.35986 4.780757,2.780489 0.114489,0.226619 0.363402,0.369948 0.634859,0.369948 0.01742,0 0.03494,-4.9e-4 0.05245,-0.002 0.291393,-0.0198 0.538443,-0.202093 0.619209,-0.456957 0.02059,-0.06587 0.200379,-0.666077 0.101354,-1.501609 z"/>
 <circle style="opacity:0.2" cx="4.5" cy="8" r=".5"/>
 <circle style="fill:#ffffff" cx="4.5" cy="7.5" r=".5"/>
 <path style="opacity:0.2;fill:#ffffff" d="m 14.623047,3.0039062 c -1.180707,-0.00105 -2.364571,0.2652482 -3.425781,0.625 C 10.279677,3.9400004 9.8343511,3.9833158 9.3183591,4.0332031 8.8795933,4.075638 7.8819481,4.1232204 7.091797,4.3242188 4.8160833,4.9031975 3.7459575,5.821003 3.138672,6.4238281 2.6646,6.8944006 2.47373,7.3745259 2.5000001,7.7636719 2.387188,7.8201569 2.3278612,7.8819891 2.2031251,7.9472656 1.3690974,8.3835902 1.0802786,8.5880059 1.013672,8.9355469 0.98656146,9.077173 1.0093705,9.193641 1.0644532,9.306641 1.1790132,9.033587 1.4815958,8.824736 2.2031251,8.4472656 2.3278612,8.3819891 2.387188,8.3201569 2.5000001,8.2636719 2.47373,7.8745259 2.6646,7.3944006 3.138672,6.9238281 3.7459575,6.321003 4.8160833,5.4031975 7.091797,4.8242188 7.8819481,4.6232203 8.8795933,4.575638 9.3183591,4.5332031 c 0.515992,-0.049887 0.9613179,-0.093203 1.8789069,-0.4042969 1.414947,-0.4796691 3.049352,-0.7950327 4.601562,-0.5292968 0.06422,0.038782 0.113646,0.1231529 0.152344,0.21875 0.118006,-0.2447475 0.0177,-0.6160519 -0.152344,-0.71875 -0.388052,-0.066434 -0.782212,-0.095355 -1.175781,-0.095703 z m 0.230469,2.2207032 c -0.11687,0.094458 -0.226151,0.1873789 -0.353516,0.28125 3.803127,2.1018962 5.492725,6.9386746 5.5,10.9960936 0.06791,0.132758 0.178691,0.221622 0.275391,0.378906 0.274625,0.4469 0.617622,1.001768 0.695312,1.658203 0.01188,0.100201 0.0091,0.184428 0.01367,0.277344 0.01593,-0.225107 0.02179,-0.478166 -0.01367,-0.777344 -0.07769,-0.656435 -0.420687,-1.211303 -0.695312,-1.658203 C 20.178691,16.223575 20.067911,16.134711 20,16.001953 19.992959,12.075065 18.403111,7.4256711 14.853516,5.2246094 Z M 13,11.003906 c -0.0029,0.148062 -0.01782,0.304711 0.01758,0.490235 0.124084,0.651198 0.383519,1.054593 0.386719,1.058593 0.03007,0.03739 0.05037,0.07989 0.07031,0.121094 0.09683,-0.204537 0.07576,-0.439463 -0.07031,-0.621094 -0.0032,-0.004 -0.25733,-0.40114 -0.382813,-1.041015 -0.0068,-0.002 -0.0147,-0.0058 -0.02148,-0.0078 z m 4.089844,3.494141 c -0.292977,0 -0.611399,0.02911 -0.970703,0.08594 -1.166875,0.184589 -1.844647,0.938114 -1.923829,1.023438 -0.157534,0.169568 -0.204778,0.539577 -0.132812,0.787109 0.02847,-0.113716 0.06941,-0.218864 0.132812,-0.287109 0.07918,-0.08532 0.756954,-0.838849 1.923829,-1.023438 0.359304,-0.05683 0.677726,-0.08594 0.970703,-0.08594 0.112719,0 0.336096,9.06e-4 0.410156,0.0039 l -0.0098,-0.5 c -0.07912,-0.0028 -0.290355,-0.0039 -0.40039,-0.0039 z"/>
</svg>
